!! 00000] TT[WS
!!!OTL: Dongda feiyengdui
!!!ARE: Asia, China, Shanxi Dingxiang
!! Ethnic Group: Han
!! WI, 312 (2)
!!!SCT: J0378
!!!YEM: Copyright 1995, estate of Helmut Schaffrath.
**kern
*ICvox
*Ivox
*M2/4
*k[b-e-]
*B-:
{8ddd
8ddd
8ccc
16ddd
16ccc
=1
16bb-
8gg
16ff
4dd
=2
8ddd
8ddd
8ccc
16ddd
16ccc
=3
2bb-}
=4
{8bb-
16bb-
16ccc
8ddd
16ddd
16ddd
=5
8ff
8bb-
8.ccc
16bb-
=6
8gg
16gg
16ff
8.dd
16ff
=7
8gg
16ff
16gg
8bb-
16aa
16gg
=8
2ff}
==
!!!AGN: Xiaodiao. Xinminge, Xuanchuan
!! Neue Text. Politische Liede
!!!ONB: ESAC (Essen Associative Code) Database: CHINA
!!!AMT: simple duple
!!!AIN: vox
!!!EED: Helmut Schaffrath
!!!EEV: 1.0
*-
